assets/logos/color_logo/sg-1000.svg

<?xml version="1.0" encoding="UTF-8"?>
<svg width="468px" height="127px" viewBox="0 0 468 127" version="1.1" xmlns="http://www.w3.org/2000/svg" xmlns:xlink="http://www.w3.org/1999/xlink">
    <title>mainlogo</title>
    <g id="Page-1" stroke="none" stroke-width="1" fill="none" fill-rule="evenodd">
        <g id="mainlogo" fill-rule="nonzero">
            <g id="SG-1000_logo" transform="translate(0.000000, 69.000000)" fill="#FF0000">
                <path d="M0,22.6236797 L0,13.2186798 C0,4.85867994 4.17923995,0.678679991 12.5399998,0.678679991 L68.9699991,0.678679991 L68.9699991,13.2186798 L12.5399998,13.2186798 L12.5399998,22.6236797 L56.4299993,22.6236797 C64.7899992,22.6236797 68.9699991,26.8036797 68.9699991,35.1636796 L68.9699991,44.5686794 C68.9699991,52.9294393 64.7899992,57.1086793 56.4299993,57.1086793 L0,57.1086793 L0,44.5686794 L56.4299993,44.5686794 L56.4299993,35.1636796 L12.5399998,35.1636796 C4.17923995,35.1636796 0,30.9844396 0,22.6236797 Z" id="Path"></path>
                <path d="M75.2399991,44.5686794 L75.2399991,13.2186798 C75.2399991,4.85867994 79.419239,0.678679991 87.7799989,0.678679991 L144.209998,0.678679991 L144.209998,13.2186798 L87.7799989,13.2186798 L87.7799989,44.5686794 L131.669998,44.5686794 L131.669998,35.1636796 L106.589999,35.1636796 L106.589999,22.6236797 L144.209998,22.6236797 L144.209998,57.1086793 L87.7799989,57.1086793 C79.419239,57.1086793 75.2399991,52.9294393 75.2399991,44.5686794 Z" id="Path"></path>
                <polygon id="Path" points="150.479998 35.1636796 150.479998 22.6236797 172.424998 22.6236797 172.424998 35.1636796"></polygon>
                <polygon id="Path" points="178.694998 57.1086793 178.694998 44.5686794 197.504998 44.5686794 197.504998 13.2186798 178.694998 13.2186798 178.694998 0.678679991 213.179997 0.678679991 213.179997 44.5686794 231.989997 44.5686794 231.989997 57.1086793"></polygon>
                <path d="M310.364996,44.5686794 C310.364996,52.9294393 306.184996,57.1086793 297.824996,57.1086793 L250.799997,57.1086793 C242.439237,57.1086793 238.259997,52.9294393 238.259997,44.5686794 L238.259997,13.2186798 C238.259997,4.85867994 242.439237,0.678679991 250.799997,0.678679991 L297.824996,0.678679991 C306.184996,0.678679991 310.364996,4.85867994 310.364996,13.2186798 L310.364996,44.5686794 Z M297.824996,44.5686794 L297.824996,13.2186798 L250.799997,13.2186798 L250.799997,44.5686794 L297.824996,44.5686794 Z" id="Shape"></path>
                <path d="M388.739995,44.5686794 C388.739995,52.9294393 384.559995,57.1086793 376.199995,57.1086793 L329.174996,57.1086793 C320.814996,57.1086793 316.634996,52.9294393 316.634996,44.5686794 L316.634996,13.2186798 C316.634996,4.85867994 320.814996,0.678679991 329.174996,0.678679991 L376.199995,0.678679991 C384.559995,0.678679991 388.739995,4.85867994 388.739995,13.2186798 L388.739995,44.5686794 Z M376.199995,44.5686794 L376.199995,13.2186798 L329.174996,13.2186798 L329.174996,44.5686794 L376.199995,44.5686794 Z" id="Shape"></path>
                <path d="M467.114994,44.5686794 C467.114994,52.9294393 462.934994,57.1086793 454.574994,57.1086793 L407.549995,57.1086793 C399.189995,57.1086793 395.009995,52.9294393 395.009995,44.5686794 L395.009995,13.2186798 C395.009995,4.85867994 399.189995,0.678679991 407.549995,0.678679991 L454.574994,0.678679991 C462.934994,0.678679991 467.114994,4.85867994 467.114994,13.2186798 L467.114994,44.5686794 Z M454.574994,44.5686794 L454.574994,13.2186798 L407.549995,13.2186798 L407.549995,44.5686794 L454.574994,44.5686794 Z" id="Shape"></path>
            </g>
            <g id="SEGA_logo">
                <path d="M68.1099223,41.8839522 C70.6480086,44.3487713 74.1090772,45.8726368 77.9263442,45.8726368 L138.239992,45.8795488 L125.214098,7.01936552 C123.434949,2.89105847 119.261023,-5.62499954e-07 114.24798,-5.62499954e-07 C109.256134,-5.62499954e-07 105.019079,2.98552247 103.306285,7.09677992 L98.9641669,19.755416 L98.9471173,0.653874608 L77.8844114,0.643276209 C74.077282,0.643276209 70.6549206,2.12889532 68.1343447,4.58634157 L68.1417175,0.660325808 L46.575818,0.660325808 C42.5590247,0.660325808 38.9058025,2.37311931 36.3506666,5.06511284 L36.3506666,0.643276209 L16.0247798,0.660786608 C7.25022677,0.653413808 0.0525311969,7.51242149 0.0419327975,16.580965 C0.0419327975,20.7793135 1.87683829,24.5869037 4.58265573,27.4079211 L0,27.4005483 L0,45.8726368 L20.4788724,45.8689504 C26.2328816,45.8620384 31.9348205,42.3903714 33.9167212,38.2307301 L33.9761644,38.0597733 C36.2658794,42.6843618 41.0443752,45.8726368 46.5748964,45.8726368 L68.1094615,45.8689504 L68.1094615,41.8839522" id="Path" fill="#FFFFFF"></path>
                <path d="M3.16385261,42.7120098 L20.4332532,42.6944994 C27.4986992,42.6944994 33.2245996,36.9861093 33.2245996,29.9524586 C33.2245996,22.9049838 27.4986992,17.1961329 20.4332532,17.1961329 L15.948287,17.2205553 C15.5948535,17.2205553 15.3082359,16.9307121 15.3082359,16.574053 C15.3082359,16.2173938 15.5948535,15.9270898 15.948287,15.9270898 L33.1863532,15.9307762 L33.1932652,10.5228277 L15.9446006,10.5228277 C12.6097912,10.5228277 9.89660101,13.2318708 9.89660101,16.560229 C9.89660101,19.8918128 12.6093304,22.5902574 15.9446006,22.5902574 L20.4507636,22.6497006 C24.4988913,22.6497006 27.7747183,25.9144684 27.7747183,29.942321 C27.7747183,33.9729383 24.4993521,37.2450789 20.4507636,37.2450789 L3.17076461,37.2450789 L3.16385261,42.7120098" id="Path" fill="#0060A8"></path>
                <path d="M3.17076461,35.975575 L20.4507636,35.975575 C23.7961714,35.975575 26.5019888,33.2771304 26.5019888,29.9418602 C26.5019888,26.6102764 23.7961714,23.9150573 20.4507636,23.9150573 L15.9446006,23.8662125 C11.9033849,23.8662125 8.62433229,20.5977583 8.62433229,16.5597682 C8.62433229,12.5328372 11.9033849,9.26392219 15.9446006,9.26392219 L33.1932652,9.26023579 L33.1863532,3.83155122 L15.948287,3.83155122 C8.89021387,3.83155122 3.15694061,9.53349017 3.15694061,16.574053 C3.15694061,23.6146157 8.89021387,29.3197802 15.948287,29.3197802 L20.4088308,29.3266922 C20.7479796,29.3266922 21.0345971,29.6031722 21.0345971,29.9524586 C21.0345971,30.2952937 20.7479796,30.5713129 20.4088308,30.5713129 L3.16385261,30.5851369 L3.17076461,35.975575" id="Path" fill="#0060A8"></path>
                <path d="M46.6136036,37.2796389 C43.6174822,37.2796389 41.1632615,34.8917735 41.1632615,31.8431208 L41.1632615,14.5916915 C41.1632615,11.6586996 43.6174822,9.24641179 46.6136036,9.24641179 L65.0469849,9.24963739 L65.0469849,3.83155122 L46.6136036,3.83155122 C40.6149096,3.83155122 35.7557739,8.67317662 35.7557739,14.6511347 L35.7557739,31.8435816 C35.7557739,37.8220005 40.6149096,42.6705378 46.6136036,42.6705378 L64.9700313,42.6779106 L64.9663449,37.2731877 L46.6136036,37.2796389" id="Path" fill="#0060A8"></path>
                <path d="M42.4848359,14.6511347 C42.4848359,12.365106 44.3238886,10.5122293 46.6136036,10.5122293 L65.0469849,10.5122293 L65.0469849,15.9376882 L49.1655139,15.9376882 C47.8932451,15.9376882 47.8757347,17.1998193 47.8757347,17.1998193 L61.1251164,17.1998193 L61.1251164,22.6008558 L42.4783847,22.6008558 L42.4848359,14.6511347" id="Path" fill="#0060A8"></path>
                <path d="M46.6136036,35.9654374 C44.3308006,35.9654374 42.4779239,34.1231591 42.4779239,31.8435816 L42.4779239,23.8869485 L61.1246556,23.8869485 L61.1246556,29.2990442 L47.8752739,29.2990442 C47.8927843,30.5713129 49.1650531,30.5777641 49.1650531,30.5777641 L64.9695705,30.5777641 L64.9658841,35.9580646 L46.6136036,35.9654374" id="Path" fill="#0060A8"></path>
                <path d="M77.9645906,37.2658149 C74.9790675,37.2658149 72.5391317,34.8327911 72.5391317,31.8431208 L72.5391317,14.6506739 C72.5391317,11.6582388 74.9615571,9.24595099 77.9503058,9.24595099 L95.8040007,9.24595099 L95.8040007,3.83155122 L77.9088338,3.83155122 C71.9129045,3.83155122 67.0537688,8.67317662 67.0537688,14.6511347 L67.0537688,31.8435816 C67.0537688,37.8220005 71.9548373,42.6705378 77.9503058,42.6705378 L95.8040007,42.6779106 L95.8040007,17.1998193 L80.460744,17.1998193 L80.460744,22.6008558 L90.3817674,22.6008558 L90.3817674,37.2658149 L77.9645906,37.2658149" id="Path" fill="#0060A8"></path>
                <path d="M73.8114004,31.8431208 C73.8114004,34.1337575 75.6642771,35.9967718 77.9503058,35.9967718 L89.1021259,35.9967718 L89.1021259,23.8800365 L80.4741072,23.8800365 L80.4741072,29.2990442 L83.6762062,29.2990442 L83.6863438,30.5713129 L80.4985296,30.5713129 C79.8027216,30.5713129 79.2331729,29.9948522 79.2331729,29.2990442 L79.2046033,17.1961329 C79.2046033,17.1961329 79.2009169,15.9376882 80.4842448,15.9063538 L95.8099911,15.9063538 L95.8030791,10.5085429 L77.9493842,10.5122293 C75.6633555,10.5122293 73.8104788,12.365106 73.8104788,14.6511347 L73.8104788,31.8431208" id="Path" fill="#0060A8"></path>
                <path d="M112.580345,10.4315893 C112.820883,9.74315416 113.474758,9.24687259 114.24752,9.24687259 C115.020742,9.24687259 115.681068,9.74315416 115.915155,10.4315893 L124.581881,36.0350182 L111.891449,36.0350182 L111.905273,30.0119018 L116.146015,30.0119018 L114.236921,24.3380717 L108.017965,42.6733026 L101.620679,42.6733026 L112.580345,10.4315893" id="Path" fill="#0060A8"></path>
                <path d="M126.329234,37.2658149 L111.912646,37.2658149 L111.912646,42.6733026 L133.852254,42.6733026 L122.441926,8.91417501 C121.44199,5.6212984 118.145887,3.19887286 114.243833,3.19887286 C110.335789,3.19887286 107.049824,5.6107 106.042515,8.90081181 L94.5275848,42.6737634 L100.271456,42.6737634 L111.451385,9.84453015 C111.905273,8.75750302 112.975712,7.99165346 114.234156,7.99165346 C115.485689,7.99165346 116.562118,8.75750302 117.020153,9.83761815 L126.329234,37.2658149" id="Path" fill="#0060A8"></path>
                <path d="M129.717035,8.12805025 C130.738168,8.12805025 131.699397,7.72945828 132.419627,7.01291432 C133.139397,6.28945836 133.541675,5.33514162 133.541675,4.31446959 C133.541675,3.30070965 133.139397,2.34961851 132.419627,1.62616255 C131.699397,0.913304993 130.738168,0.514713016 129.717035,0.514713016 C127.616248,0.514713016 125.899768,2.21736891 125.899768,4.31493039 C125.899768,5.33560242 126.29836,6.28991916 127.025042,7.01337512 C127.742047,7.72945828 128.699589,8.12805025 129.717035,8.12805025 M126.438444,4.31400879 C126.438444,3.44355764 126.773906,2.61872569 127.399212,1.99987133 C128.021752,1.38101696 128.846584,1.04555458 129.717035,1.04555458 C130.598085,1.04555458 131.422917,1.38147776 132.045458,1.99987133 C132.664312,2.61872569 133.007147,3.44355764 133.007147,4.31400879 C133.007147,6.12126637 131.531666,7.58937509 129.717035,7.58937509 C128.846124,7.58937509 128.021292,7.25022631 127.399212,6.63137194 C126.773445,6.01297838 126.438444,5.19137203 126.438444,4.31400879 Z" id="Shape" fill="#FFFFFF"></path>
                <path d="M128.738296,4.63564726 L128.738296,6.43230636 L128.185797,6.43230636 L128.185797,2.20953532 L129.755282,2.20953532 C130.346488,2.21644731 130.692549,2.21644731 131.021099,2.4643577 C131.339051,2.69890489 131.472223,3.05187767 131.472223,3.44355764 C131.472223,4.42966958 130.668587,4.55869358 130.464914,4.60062637 L131.653778,6.43230636 L130.986079,6.43230636 L129.82901,4.63564726 L128.738296,4.63564726 M128.738296,4.1707 L129.860344,4.1707 C130.039135,4.1707 130.206866,4.1707 130.374597,4.1287672 C130.766277,4.03430321 130.905899,3.75459762 130.905899,3.44724404 C130.905899,3.33526965 130.895301,3.05233847 130.653842,2.85649848 C130.433119,2.67125689 130.153874,2.67816889 129.82901,2.67816889 L128.738296,2.67816889 L128.738296,4.1707 L128.738296,4.1707 Z" id="Shape" fill="#FFFFFF"></path>
            </g>
        </g>
    </g>
</svg>

<?xml version="1.0" encoding="UTF-8" standalone="no"?>
<svg
   xmlns:dc="http://purl.org/dc/elements/1.1/"
   xmlns:cc="http://creativecommons.org/ns#"
   xmlns:rdf="http://www.w3.org/1999/02/22-rdf-syntax-ns#"
   xmlns:svg="http://www.w3.org/2000/svg"
   xmlns="http://www.w3.org/2000/svg"
   xmlns:sodipodi="http://sodipodi.sourceforge.net/DTD/sodipodi-0.dtd"
   xmlns:inkscape="http://www.inkscape.org/namespaces/inkscape"
   width="500"
   height="200"
   viewBox="0 0 500 200"
   version="1.1"
   id="svg44"
   sodipodi:docname="sg-1000.svg"
   inkscape:version="0.92.5 (2060ec1f9f, 2020-04-08)">
  <metadata
     id="metadata50">
    <rdf:RDF>
      <cc:Work
         rdf:about="">
        <dc:format>image/svg+xml</dc:format>
        <dc:type
           rdf:resource="http://purl.org/dc/dcmitype/StillImage" />
        <dc:title>mainlogo</dc:title>
      </cc:Work>
    </rdf:RDF>
  </metadata>
  <defs
     id="defs48" />
  <sodipodi:namedview
     pagecolor="#ffffff"
     bordercolor="#666666"
     borderopacity="1"
     objecttolerance="10"
     gridtolerance="10"
     guidetolerance="10"
     inkscape:pageopacity="0"
     inkscape:pageshadow="2"
     inkscape:window-width="1366"
     inkscape:window-height="740"
     id="namedview46"
     showgrid="false"
     inkscape:pagecheckerboard="true"
     inkscape:zoom="1.2479968"
     inkscape:cx="405.21264"
     inkscape:cy="63.5"
     inkscape:window-x="0"
     inkscape:window-y="0"
     inkscape:window-maximized="1"
     inkscape:current-layer="svg44" />
  <title
     id="title2">mainlogo</title>
  <g
     id="SG-1000_logo"
     transform="matrix(1.0583233,0,0,1.0583233,0,94.669237)"
     style="fill:#ff0000;fill-rule:nonzero;stroke:none;stroke-width:1">
    <path
       d="m 0,22.62368 v -9.405 C 0,4.8586799 4.17924,0.67867999 12.54,0.67867999 H 68.969999 V 13.21868 H 12.54 v 9.405 h 43.889999 c 8.36,0 12.54,4.18 12.54,12.54 v 9.404999 c 0,8.36076 -4.18,12.54 -12.54,12.54 H 0 v -12.54 H 56.429999 V 35.16368 H 12.54 C 4.17924,35.16368 0,30.98444 0,22.62368 Z"
       id="Path"
       inkscape:connector-curvature="0" />
    <path
       d="M 75.239999,44.568679 V 13.21868 c 0,-8.3600001 4.17924,-12.54000001 12.54,-12.54000001 H 144.21 V 13.21868 H 87.779999 V 44.568679 H 131.67 V 35.16368 h -25.08 v -12.54 h 37.62 V 57.108679 H 87.779999 c -8.36076,0 -12.54,-4.17924 -12.54,-12.54 z"
       id="path5"
       inkscape:connector-curvature="0" />
    <polygon
       id="polygon7"
       points="150.48,35.16368 150.48,22.62368 172.425,22.62368 172.425,35.16368 " />
    <polygon
       id="polygon9"
       points="197.505,44.568679 197.505,13.21868 178.695,13.21868 178.695,0.67867999 213.18,0.67867999 213.18,44.568679 231.99,44.568679 231.99,57.108679 178.695,57.108679 178.695,44.568679 " />
    <path
       d="m 310.365,44.568679 c 0,8.36076 -4.18,12.54 -12.54,12.54 H 250.8 c -8.36076,0 -12.54,-4.17924 -12.54,-12.54 V 13.21868 c 0,-8.3600001 4.17924,-12.54000001 12.54,-12.54000001 h 47.025 c 8.36,0 12.54,4.17999991 12.54,12.54000001 z m -12.54,0 V 13.21868 H 250.8 v 31.349999 z"
       id="Shape"
       inkscape:connector-curvature="0" />
    <path
       d="m 388.74,44.568679 c 0,8.36076 -4.18,12.54 -12.54001,12.54 H 329.175 c -8.36,0 -12.54,-4.17924 -12.54,-12.54 V 13.21868 c 0,-8.3600001 4.18,-12.54000001 12.54,-12.54000001 h 47.02499 c 8.36001,0 12.54001,4.17999991 12.54001,12.54000001 z m -12.54001,0 V 13.21868 H 329.175 v 31.349999 z"
       id="path12"
       inkscape:connector-curvature="0" />
    <path
       d="m 467.11499,44.568679 c 0,8.36076 -4.18,12.54 -12.54,12.54 H 407.55 c -8.36001,0 -12.54001,-4.17924 -12.54001,-12.54 V 13.21868 c 0,-8.3600001 4.18,-12.54000001 12.54001,-12.54000001 h 47.02499 c 8.36,0 12.54,4.17999991 12.54,12.54000001 z m -12.54,0 V 13.21868 H 407.55 v 31.349999 z"
       id="path14"
       inkscape:connector-curvature="0" />
  </g>
  <g
     style="fill:none;fill-rule:nonzero;stroke:none;stroke-width:1"
     id="SEGA_logo"
     transform="matrix(1.0583233,0,0,1.0583233,0,32.228165)">
    <path
       d="m 68.109922,41.883952 c 2.538087,2.464819 5.999155,3.988685 9.816422,3.988685 l 60.313646,0.0069 L 125.2141,7.0193655 C 123.43495,2.8910585 119.26102,-5.6249995e-7 114.24798,-5.6249995e-7 109.25613,-5.6249995e-7 105.01908,2.9855225 103.30629,7.0967799 L 98.964167,19.755416 98.947117,0.65387461 77.884411,0.64327621 c -3.807129,0 -7.22949,1.48561909 -9.750066,3.94306539 l 0.0074,-3.92601579 H 46.575818 c -4.016793,0 -7.670016,1.71279349 -10.225151,4.40478699 V 0.64327621 L 16.02478,0.66078661 C 7.2502268,0.65341381 0.0525312,7.5124215 0.0419328,16.580965 c 0,4.198348 1.8349055,8.005939 4.5407229,10.826956 L 0,27.400548 v 18.472089 l 20.478872,-0.0037 c 5.75401,-0.0069 11.455948,-3.478579 13.437849,-7.63822 l 0.05944,-0.170957 c 2.289715,4.624589 7.068211,7.812864 12.598732,7.812864 l 21.534565,-0.0037 v -3.984998"
       id="path17"
       inkscape:connector-curvature="0"
       style="fill:#ffffff" />
    <path
       d="M 3.1638526,42.71201 20.433253,42.6945 c 7.065446,0 12.791347,-5.70839 12.791347,-12.74204 0,-7.047475 -5.725901,-12.756326 -12.791347,-12.756326 l -4.484966,0.02442 c -0.353434,0 -0.640051,-0.289843 -0.640051,-0.646502 0,-0.356659 0.286617,-0.646963 0.640051,-0.646963 l 17.238066,0.0037 0.0069,-5.407948 H 15.944601 c -3.33481,0 -6.048,2.709043 -6.048,6.037401 0,3.331584 2.712729,6.030028 6.048,6.030028 l 4.506163,0.05944 c 4.048127,0 7.323954,3.264767 7.323954,7.29262 0,4.030617 -3.275366,7.302758 -7.323954,7.302758 H 3.1707646 l -0.00691,5.466931"
       id="path19"
       inkscape:connector-curvature="0"
       style="fill:#0060a8" />
    <path
       d="M 3.1707646,35.975575 H 20.450764 c 3.345407,0 6.051225,-2.698445 6.051225,-6.033715 0,-3.331584 -2.705818,-6.026803 -6.051225,-6.026803 l -4.506163,-0.04885 c -4.041216,0 -7.3202687,-3.268454 -7.3202687,-7.306444 0,-4.026931 3.2790527,-7.2958458 7.3202687,-7.2958458 l 17.248664,-0.00369 -0.0069,-5.4286846 H 15.948287 c -7.0580731,0 -12.7913464,5.701939 -12.7913464,12.7425014 0,7.040563 5.7332733,12.745727 12.7913464,12.745727 l 4.460544,0.0069 c 0.339149,0 0.625766,0.27648 0.625766,0.625767 0,0.342835 -0.286617,0.618854 -0.625766,0.618854 l -17.2449784,0.01382 0.00691,5.390438"
       id="path21"
       inkscape:connector-curvature="0"
       style="fill:#0060a8" />
    <path
       d="m 46.613604,37.279639 c -2.996122,0 -5.450343,-2.387866 -5.450343,-5.436518 V 14.591692 c 0,-2.932992 2.454221,-5.3452802 5.450343,-5.3452802 l 18.433381,0.00323 V 3.8315512 H 46.613604 c -5.998694,0 -10.85783,4.8416254 -10.85783,10.8195838 v 17.192447 c 0,5.978419 4.859136,10.826956 10.85783,10.826956 l 18.356427,0.0074 -0.0037,-5.404723 -18.352741,0.0065"
       id="path23"
       inkscape:connector-curvature="0"
       style="fill:#0060a8" />
    <path
       d="m 42.484836,14.651135 c 0,-2.286029 1.839053,-4.138906 4.128768,-4.138906 h 18.433381 v 5.425459 H 49.165514 c -1.272269,0 -1.289779,1.262131 -1.289779,1.262131 h 13.249381 v 5.401037 H 42.478385 l 0.0065,-7.949721"
       id="path25"
       inkscape:connector-curvature="0"
       style="fill:#0060a8" />
    <path
       d="m 46.613604,35.965437 c -2.282803,0 -4.13568,-1.842278 -4.13568,-4.121855 v -7.956634 h 18.646732 v 5.412096 H 47.875274 c 0.01751,1.272269 1.289779,1.27872 1.289779,1.27872 h 15.804518 l -0.0037,5.380301 -18.35228,0.0074"
       id="path27"
       inkscape:connector-curvature="0"
       style="fill:#0060a8" />
    <path
       d="m 77.964591,37.265815 c -2.985524,0 -5.425459,-2.433024 -5.425459,-5.422694 V 14.650674 c 0,-2.992435 2.422425,-5.404723 5.411174,-5.404723 H 95.804001 V 3.8315512 H 77.908834 c -5.99593,0 -10.855065,4.8416254 -10.855065,10.8195838 v 17.192447 c 0,5.978419 4.901068,10.826956 10.896537,10.826956 l 17.853695,0.0074 V 17.199819 H 80.460744 v 5.401037 h 9.921023 V 37.265815 H 77.964591"
       id="path29"
       inkscape:connector-curvature="0"
       style="fill:#0060a8" />
    <path
       d="m 73.8114,31.843121 c 0,2.290637 1.852877,4.153651 4.138906,4.153651 h 11.15182 V 23.880036 h -8.628019 v 5.419008 h 3.202099 l 0.01014,1.272269 H 80.49853 c -0.695808,0 -1.265357,-0.576461 -1.265357,-1.272269 l -0.02857,-12.102911 c 0,0 -0.0037,-1.258445 1.279642,-1.289779 h 15.325746 l -0.0069,-5.397811 -17.853695,0.0037 c -2.286029,0 -4.138905,1.852877 -4.138905,4.138906 v 17.191986"
       id="path31"
       inkscape:connector-curvature="0"
       style="fill:#0060a8" />
    <path
       d="m 112.58034,10.431589 c 0.24054,-0.6884348 0.89442,-1.1847164 1.66718,-1.1847164 0.77322,0 1.43355,0.4962816 1.66764,1.1847164 l 8.66672,25.603429 h -12.69043 l 0.0138,-6.023116 h 4.24075 l -1.9091,-5.67383 -6.21895,18.335231 h -6.39729 l 10.95966,-32.241714"
       id="path33"
       inkscape:connector-curvature="0"
       style="fill:#0060a8" />
    <path
       d="m 126.32923,37.265815 h -14.41658 v 5.407488 h 21.9396 L 122.44193,8.914175 c -0.99994,-3.2928766 -4.29604,-5.7153021 -8.1981,-5.7153021 -3.90804,0 -7.19401,2.4118271 -8.20132,5.7019389 L 94.527585,42.673763 h 5.743875 L 111.45139,9.8445302 c 0.45388,-1.0870272 1.52432,-1.8528767 2.78277,-1.8528767 1.25153,0 2.32796,0.7658495 2.78599,1.8459647 l 9.30908,27.4281968"
       id="path35"
       inkscape:connector-curvature="0"
       style="fill:#0060a8" />
    <path
       d="m 129.71703,8.1280502 c 1.02114,0 1.98237,-0.3985919 2.7026,-1.1151359 0.71977,-0.7234559 1.12204,-1.6777727 1.12204,-2.6984447 0,-1.0137599 -0.40227,-1.9648511 -1.12204,-2.6883071 -0.72023,-0.71285751 -1.68146,-1.11144948 -2.7026,-1.11144948 -2.10078,0 -3.81726,1.70265588 -3.81726,3.80021738 0,1.020672 0.39859,1.9749888 1.12527,2.6984447 0.71701,0.7160832 1.67455,1.1146751 2.69199,1.1146751 m -3.27859,-3.8140414 c 0,-0.8704512 0.33547,-1.6952831 0.96077,-2.3141375 0.62254,-0.6188543 1.44737,-0.9543167 2.31782,-0.9543167 0.88105,0 1.70589,0.3359232 2.32843,0.9543167 0.61885,0.6188544 0.96169,1.4436863 0.96169,2.3141375 0,1.8072576 -1.47548,3.2753663 -3.29012,3.2753663 -0.87091,0 -1.69574,-0.3391488 -2.31782,-0.9580032 -0.62577,-0.6183935 -0.96077,-1.4399999 -0.96077,-2.3173631 z"
       id="path37"
       inkscape:connector-curvature="0"
       style="fill:#ffffff" />
    <path
       d="m 128.7383,4.6356473 v 1.7966591 h -0.5525 V 2.2095353 h 1.56948 c 0.59121,0.00691 0.93727,0.00691 1.26582,0.2548224 0.31795,0.2345472 0.45112,0.58752 0.45112,0.9791999 0,0.986112 -0.80363,1.115136 -1.00731,1.1570688 l 1.18887,1.83168 h -0.6677 l -1.15707,-1.7966591 h -1.09071 m 0,-0.4649473 h 1.12204 c 0.17879,0 0.34653,0 0.51426,-0.041933 0.39168,-0.094464 0.5313,-0.3741696 0.5313,-0.6815232 0,-0.1119743 -0.0106,-0.3949055 -0.25206,-0.5907455 -0.22072,-0.1852416 -0.49997,-0.1783296 -0.82483,-0.1783296 h -1.09071 z"
       id="path39"
       inkscape:connector-curvature="0"
       style="fill:#ffffff" />
  </g>
</svg>
